Icons/TM_Icons/more icons/number-00.svg

<?xml version='1.0' encoding='utf-8'?>
<ns0:svg xmlns:ns0="http://www.w3.org/2000/svg" version="1.1" viewBox="173.0 0.0 1480.0 1480.0" role="img" focusable="false" preserveAspectRatio="xMidYMid meet">
   <ns0:path fill="currentColor" d="M173 60c0 -204.667 72.167 -379.17 216.5 -523.5s318.833 -216.5 523.5 -216.5c204.67 0 379.17 72.1699 523.5 216.5s216.5 318.833 216.5 523.5s-72.1699 379.167 -216.5 523.5s-318.83 216.5 -523.5 216.5c-204.667 0 -379.167 -72.167 -523.5 -216.5 s-216.5 -318.833 -216.5 -523.5zM1275 58c0 -144 -33.5 -261 -100.5 -351s-154.17 -135 -261.5 -135c-107.333 0 -194.333 45.1699 -261 135.5s-100 207.833 -100 352.5c0 143.333 33.5 260 100.5 350s153.833 135 260.5 135c107.33 0 194.5 -45 261.5 -135 s100.5 -207.333 100.5 -352zM1076 58c0 270.667 -54.6699 406 -164 406c-108 0 -162 -135.333 -162 -406c0 -270 54.667 -405 164 -405c108 0 162 135 162 405z" />
</ns0:svg>

<svg xmlns="http://www.w3.org/2000/svg" width="400" height="200" viewBox="-567 -680 2960 1480"><path fill="currentColor" d="M173 60c0-204.667 72.167-379.17 216.5-523.5S708.333-680 913-680c204.67 0 379.17 72.17 523.5 216.5S1653-144.667 1653 60s-72.17 379.167-216.5 523.5S1117.67 800 913 800q-307 0-523.5-216.5C173 367 173 264.667 173 60m1102-2q0-216-100.5-351C1074-428 1020.33-428 913-428c-107.333 0-194.333 45.17-261 135.5S552-84.667 552 60q0 215 100.5 350C753 545 806.333 545 913 545c107.33 0 194.5-45 261.5-135S1275 202.667 1275 58m-199 0c0 270.667-54.67 406-164 406q-162 0-162-406 0-405 164-405 162 0 162 405"/></svg>
